X: 1
T:The Rose Tree
T:(Old No. 5)
M:6/8
L:1/8
P:A.(AB)4.A
Q:C3=84
C:Traditional
S:MS11,c1800.,Browne Coll.,Lakes
R:Jig
O:England
A:Lakes
Z:vmp.Chris Partington
K:D
"A"[|] f>e|: d2 B A2 F | ABF A2 A | d>cd e>de |1 f2 e e>fe :|2\
f2 d d2 ||
"B"|: e | f2 e f2 g | a3 g2 f | e2 b b2 a | b2 e e>fe | d2 B A2 F |\
ABF A2 A | d>cd e>de | f2 d d2 :|
